assets/img/braze_icons/flip-forward.svg

<svg fill="none" height="24" viewBox="0 0 24 24" width="24" xmlns="http://www.w3.org/2000/svg"><path d="m17.7071 4.29289c-.3905-.39052-1.0237-.39052-1.4142 0-.3905.39053-.3905 1.02369 0 1.41422l2.2929 2.29289h-11.0858c-3.03757 0-5.5 2.4624-5.5 5.5s2.46243 5.5 5.5 5.5h4.5c.5523 0 1-.4477 1-1s-.4477-1-1-1h-4.5c-1.933 0-3.5-1.567-3.5-3.5s1.567-3.5 3.5-3.5h11.0858l-2.2929 2.2929c-.3905.3905-.3905 1.0237 0 1.4142s1.0237.3905 1.4142 0l4-3.99999c.3905-.39053.3905-1.02369 0-1.41422z" fill="#801ed7"/></svg>

<svg width="24" height="24" viewBox="0 0 24 24" fill="none" xmlns="http://www.w3.org/2000/svg">
<path d="M17.7071 4.29289C17.3166 3.90237 16.6834 3.90237 16.2929 4.29289C15.9024 4.68342 15.9024 5.31658 16.2929 5.70711L18.5858 8L7.5 8C4.46243 8 2 10.4624 2 13.5C2 16.5376 4.46243 19 7.5 19H12C12.5523 19 13 18.5523 13 18C13 17.4477 12.5523 17 12 17H7.5C5.567 17 4 15.433 4 13.5C4 11.567 5.567 10 7.5 10L18.5858 10L16.2929 12.2929C15.9024 12.6834 15.9024 13.3166 16.2929 13.7071C16.6834 14.0976 17.3166 14.0976 17.7071 13.7071L21.7071 9.70711C22.0976 9.31658 22.0976 8.68342 21.7071 8.29289L17.7071 4.29289Z" fill="#801ED7"/>
</svg>
